images/icons/dark/educate.svg

<svg height="112" viewBox="0 0 146 112" width="146" xmlns="http://www.w3.org/2000/svg" xmlns:xlink="http://www.w3.org/1999/xlink"><defs><path id="a" d="m40.3639411 105.182569c3.2430203-7.5332619 10.7606988-12.6599703 19.2197895-12.6599703 8.4573883 0 15.9750667 5.1267084 19.218087 12.6599703zm19.2197895-30.1909949c-4.693442 0-8.5118643-3.8228746-8.5118643-8.5217892 0-4.6989145 3.8184223-8.5217891 8.5118643-8.5217891 4.6917395 0 8.5118642 3.8228746 8.5118642 8.5217891 0 4.6989146-3.8201247 8.5217892-8.5118642 8.5217892zm83.4162694-35.7915144v61.3568823h-58.8884815c1.2001729 2.277022 2.1109423 4.738114 2.6420827 7.357712l.8256508 4.085346h-55.9927453l.8273532-4.085346c2.6029281-12.8679013 14.0292547-22.2094866 27.1698707-22.2094866 7.4887381 0 14.4139908 3.0405744 19.4734429 8.0343428h57.1333355v-47.7220192h-20.428475v3.4087156h-27.2379651v-3.4087156h-20.4284741v7.7071061c4.1010162 2.7559466 6.8094914 7.4395219 6.8094914 12.7451878 0 8.4587279-6.8741816 15.3392205-15.3213556 15.3392205-8.4488765 0-15.3213557-6.8804926-15.3213557-15.3392205s6.8724792-15.3392204 15.3213557-15.3392204c.575402 0 1.1422921.0392002 1.7023728.1005571v-12.0310619h30.6427112v-3.4087157h6.8094914v3.4087157h6.809491v-3.4087157h6.809492v3.4087157zm-38.774606 41.6971143-11.351422-9.7608573-8.2922581 7.7241497-4.638966-4.9903598 12.7490702-11.8776697 11.4433499 9.8409621 15.864413-14.2007094 4.538526 5.082395zm-56.5589543-43.4013017v13.6348626l-18.1592112-13.6348626h-29.5072285v-37.4958723h54.4759311v37.4958723zm-6.8094914 0v-6.8174314h6.8094914v-23.86100958h-40.85694832v23.86100958h24.96870252zm-3.4047457-22.1566518c1.8794196 0 3.4047457 1.5271046 3.4047457 3.4087156 0 1.8816111-1.5253261 3.4087157-3.4047457 3.4087157s-3.4047457-1.5271046-3.4047457-3.4087157c0-1.881611 1.5253261-3.4087156 3.4047457-3.4087156zm-10.2142371 0c1.8794197 0 3.4047457 1.5271046 3.4047457 3.4087156 0 1.8816111-1.525326 3.4087157-3.4047457 3.4087157-1.8794196 0-3.4047457-1.5271046-3.4047457-3.4087157 0-1.881611 1.5253261-3.4087156 3.4047457-3.4087156zm-10.214237 0c1.8794196 0 3.4047457 1.5271046 3.4047457 3.4087156 0 1.8816111-1.5253261 3.4087157-3.4047457 3.4087157-1.8794197 0-3.4047457-1.5271046-3.4047457-3.4087157 0-1.881611 1.525326-3.4087156 3.4047457-3.4087156z"/><filter id="b" height="102.7%" width="104.2%" x="-1%" y="-1.3%"><feOffset dx="3" dy="0" in="SourceAlpha" result="shadowOffsetOuter1"/><feColorMatrix in="shadowOffsetOuter1" type="matrix" values="0 0 0 0 0.0901960784   0 0 0 0 0.882352941   0 0 0 0 0.996078431  0 0 0 1 0"/></filter><path id="c" d="m43.3639411 105.182569c3.2430203-7.5332619 10.7606988-12.6599703 19.2197895-12.6599703 8.4573883 0 15.9750667 5.1267084 19.218087 12.6599703zm19.2197895-30.1909949c-4.693442 0-8.5118643-3.8228746-8.5118643-8.5217892 0-4.6989145 3.8184223-8.5217891 8.5118643-8.5217891 4.6917395 0 8.5118642 3.8228746 8.5118642 8.5217891 0 4.6989146-3.8201247 8.5217892-8.5118642 8.5217892zm83.4162694-35.7915144v61.3568823h-58.8884815c1.2001729 2.277022 2.1109423 4.738114 2.6420827 7.357712l.8256508 4.085346h-55.9927453l.8273532-4.085346c2.6029281-12.8679013 14.0292547-22.2094866 27.1698707-22.2094866 7.4887381 0 14.4139908 3.0405744 19.4734429 8.0343428h57.1333355v-47.7220192h-20.428475v3.4087156h-27.2379651v-3.4087156h-20.4284741v7.7071061c4.1010162 2.7559466 6.8094914 7.4395219 6.8094914 12.7451878 0 8.4587279-6.8741816 15.3392205-15.3213556 15.3392205-8.4488765 0-15.3213557-6.8804926-15.3213557-15.3392205s6.8724792-15.3392204 15.3213557-15.3392204c.575402 0 1.1422921.0392002 1.7023728.1005571v-12.0310619h30.6427112v-3.4087157h6.8094914v3.4087157h6.809491v-3.4087157h6.809492v3.4087157zm-38.774606 41.6971143-11.351422-9.7608573-8.2922581 7.7241497-4.638966-4.9903598 12.7490702-11.8776697 11.4433499 9.8409621 15.864413-14.2007094 4.538526 5.082395zm-56.5589543-43.4013017v13.6348626l-18.1592112-13.6348626h-29.5072285v-37.4958723h54.4759311v37.4958723zm-6.8094914 0v-6.8174314h6.8094914v-23.86100958h-40.85694832v23.86100958h24.96870252zm-3.4047457-22.1566518c1.8794196 0 3.4047457 1.5271046 3.4047457 3.4087156 0 1.8816111-1.5253261 3.4087157-3.4047457 3.4087157s-3.4047457-1.5271046-3.4047457-3.4087157c0-1.881611 1.5253261-3.4087156 3.4047457-3.4087156zm-10.2142371 0c1.8794197 0 3.4047457 1.5271046 3.4047457 3.4087156 0 1.8816111-1.525326 3.4087157-3.4047457 3.4087157-1.8794196 0-3.4047457-1.5271046-3.4047457-3.4087157 0-1.881611 1.5253261-3.4087156 3.4047457-3.4087156zm-10.214237 0c1.8794196 0 3.4047457 1.5271046 3.4047457 3.4087156 0 1.8816111-1.5253261 3.4087157-3.4047457 3.4087157-1.8794197 0-3.4047457-1.5271046-3.4047457-3.4087157 0-1.881611 1.525326-3.4087156 3.4047457-3.4087156z"/><filter id="d" height="101.8%" width="101.4%" x="-.7%" y="-.9%"><feOffset dx="2" dy="0" in="SourceAlpha" result="shadowOffsetInner1"/><feComposite in="shadowOffsetInner1" in2="SourceAlpha" k2="-1" k3="1" operator="arithmetic" result="shadowInnerInner1"/><feColorMatrix in="shadowInnerInner1" type="matrix" values="0 0 0 0 1   0 0 0 0 0.152941176   0 0 0 0 0.321568627  0 0 0 0.5 0"/></filter><mask id="e" fill="#fff"><use fill="#fff" fill-rule="evenodd" xlink:href="#a"/></mask></defs><g fill="none" fill-rule="evenodd"><use fill="#000" filter="url(#b)" xlink:href="#a"/><use fill="#ff2752" fill-rule="evenodd" xlink:href="#a"/><g fill="#000" mask="url(#e)"><use fill-rule="evenodd" xlink:href="#c"/><use filter="url(#d)" xlink:href="#c"/></g></g></svg>

<?xml version="1.0" encoding="UTF-8"?>
<svg width="146px" height="112px" viewBox="0 0 146 112" version="1.1" xmlns="http://www.w3.org/2000/svg" xmlns:xlink="http://www.w3.org/1999/xlink">
    <!-- Generator: Sketch 49.1 (51147) - http://www.bohemiancoding.com/sketch -->
    <title>Educate</title>
    <desc>Created with Sketch.</desc>
    <defs>
        <path d="M40.3639411,105.182569 C43.6069614,97.6493071 51.1246399,92.5225987 59.5837306,92.5225987 C68.0411189,92.5225987 75.5587973,97.6493071 78.8018176,105.182569 L40.3639411,105.182569 Z M59.5837306,74.9915741 C54.8902886,74.9915741 51.0718663,71.1686995 51.0718663,66.4697849 C51.0718663,61.7708704 54.8902886,57.9479958 59.5837306,57.9479958 C64.2754701,57.9479958 68.0955948,61.7708704 68.0955948,66.4697849 C68.0955948,71.1686995 64.2754701,74.9915741 59.5837306,74.9915741 Z M143,39.2000597 L143,100.556942 L84.1115185,100.556942 C85.3116914,102.833964 86.2224608,105.295056 86.7536012,107.914654 L87.579252,112 L31.5865067,112 L32.4138599,107.914654 C35.016788,95.0467527 46.4431146,85.7051674 59.5837306,85.7051674 C67.0724687,85.7051674 73.9977214,88.7457418 79.0571735,93.7395102 L136.190509,93.7395102 L136.190509,46.017491 L115.762034,46.017491 L115.762034,49.4262066 L88.5240689,49.4262066 L88.5240689,46.017491 L68.0955948,46.017491 L68.0955948,53.7245971 C72.196611,56.4805437 74.9050862,61.164119 74.9050862,66.4697849 C74.9050862,74.9285128 68.0309046,81.8090054 59.5837306,81.8090054 C51.1348541,81.8090054 44.2623749,74.9285128 44.2623749,66.4697849 C44.2623749,58.011057 51.1348541,51.1305645 59.5837306,51.1305645 C60.1591326,51.1305645 60.7260227,51.1697647 61.2861034,51.2311216 L61.2861034,39.2000597 L91.9288146,39.2000597 L91.9288146,35.791344 L98.738306,35.791344 L98.738306,39.2000597 L105.547797,39.2000597 L105.547797,35.791344 L112.357289,35.791344 L112.357289,39.2000597 L143,39.2000597 Z M104.225394,80.897174 L92.873972,71.1363167 L84.5817139,78.8604664 L79.9427479,73.8701066 L92.6918181,61.9924369 L104.135168,71.833399 L119.999581,57.6326896 L124.538107,62.7150846 L104.225394,80.897174 Z M47.6664397,37.4958723 L47.6664397,51.1307349 L29.5072285,37.4958723 L0,37.4958723 L0,0 L54.4759311,0 L54.4759311,37.4958723 L47.6664397,37.4958723 Z M40.8569483,37.4958723 L40.8569483,30.6784409 L47.6664397,30.6784409 L47.6664397,6.81743132 L6.80949138,6.81743132 L6.80949138,30.6784409 L31.7781939,30.6784409 L40.8569483,37.4958723 Z M37.4522026,15.3392205 C39.3316222,15.3392205 40.8569483,16.8663251 40.8569483,18.7479361 C40.8569483,20.6295472 39.3316222,22.1566518 37.4522026,22.1566518 C35.572783,22.1566518 34.0474569,20.6295472 34.0474569,18.7479361 C34.0474569,16.8663251 35.572783,15.3392205 37.4522026,15.3392205 Z M27.2379655,15.3392205 C29.1173852,15.3392205 30.6427112,16.8663251 30.6427112,18.7479361 C30.6427112,20.6295472 29.1173852,22.1566518 27.2379655,22.1566518 C25.3585459,22.1566518 23.8332198,20.6295472 23.8332198,18.7479361 C23.8332198,16.8663251 25.3585459,15.3392205 27.2379655,15.3392205 Z M17.0237285,15.3392205 C18.9031481,15.3392205 20.4284742,16.8663251 20.4284742,18.7479361 C20.4284742,20.6295472 18.9031481,22.1566518 17.0237285,22.1566518 C15.1443088,22.1566518 13.6189828,20.6295472 13.6189828,18.7479361 C13.6189828,16.8663251 15.1443088,15.3392205 17.0237285,15.3392205 Z" id="path-1"></path>
        <filter x="-1.0%" y="-1.3%" width="104.2%" height="102.7%" filterUnits="objectBoundingBox" id="filter-3">
            <feOffset dx="3" dy="0" in="SourceAlpha" result="shadowOffsetOuter1"></feOffset>
            <feColorMatrix values="0 0 0 0 0.0901960784   0 0 0 0 0.882352941   0 0 0 0 0.996078431  0 0 0 1 0" type="matrix" in="shadowOffsetOuter1"></feColorMatrix>
        </filter>
        <path d="M43.3639411,105.182569 C46.6069614,97.6493071 54.1246399,92.5225987 62.5837306,92.5225987 C71.0411189,92.5225987 78.5587973,97.6493071 81.8018176,105.182569 L43.3639411,105.182569 Z M62.5837306,74.9915741 C57.8902886,74.9915741 54.0718663,71.1686995 54.0718663,66.4697849 C54.0718663,61.7708704 57.8902886,57.9479958 62.5837306,57.9479958 C67.2754701,57.9479958 71.0955948,61.7708704 71.0955948,66.4697849 C71.0955948,71.1686995 67.2754701,74.9915741 62.5837306,74.9915741 Z M146,39.2000597 L146,100.556942 L87.1115185,100.556942 C88.3116914,102.833964 89.2224608,105.295056 89.7536012,107.914654 L90.579252,112 L34.5865067,112 L35.4138599,107.914654 C38.016788,95.0467527 49.4431146,85.7051674 62.5837306,85.7051674 C70.0724687,85.7051674 76.9977214,88.7457418 82.0571735,93.7395102 L139.190509,93.7395102 L139.190509,46.017491 L118.762034,46.017491 L118.762034,49.4262066 L91.5240689,49.4262066 L91.5240689,46.017491 L71.0955948,46.017491 L71.0955948,53.7245971 C75.196611,56.4805437 77.9050862,61.164119 77.9050862,66.4697849 C77.9050862,74.9285128 71.0309046,81.8090054 62.5837306,81.8090054 C54.1348541,81.8090054 47.2623749,74.9285128 47.2623749,66.4697849 C47.2623749,58.011057 54.1348541,51.1305645 62.5837306,51.1305645 C63.1591326,51.1305645 63.7260227,51.1697647 64.2861034,51.2311216 L64.2861034,39.2000597 L94.9288146,39.2000597 L94.9288146,35.791344 L101.738306,35.791344 L101.738306,39.2000597 L108.547797,39.2000597 L108.547797,35.791344 L115.357289,35.791344 L115.357289,39.2000597 L146,39.2000597 Z M107.225394,80.897174 L95.873972,71.1363167 L87.5817139,78.8604664 L82.9427479,73.8701066 L95.6918181,61.9924369 L107.135168,71.833399 L122.999581,57.6326896 L127.538107,62.7150846 L107.225394,80.897174 Z M50.6664397,37.4958723 L50.6664397,51.1307349 L32.5072285,37.4958723 L3,37.4958723 L3,0 L57.4759311,0 L57.4759311,37.4958723 L50.6664397,37.4958723 Z M43.8569483,37.4958723 L43.8569483,30.6784409 L50.6664397,30.6784409 L50.6664397,6.81743132 L9.80949138,6.81743132 L9.80949138,30.6784409 L34.7781939,30.6784409 L43.8569483,37.4958723 Z M40.4522026,15.3392205 C42.3316222,15.3392205 43.8569483,16.8663251 43.8569483,18.7479361 C43.8569483,20.6295472 42.3316222,22.1566518 40.4522026,22.1566518 C38.572783,22.1566518 37.0474569,20.6295472 37.0474569,18.7479361 C37.0474569,16.8663251 38.572783,15.3392205 40.4522026,15.3392205 Z M30.2379655,15.3392205 C32.1173852,15.3392205 33.6427112,16.8663251 33.6427112,18.7479361 C33.6427112,20.6295472 32.1173852,22.1566518 30.2379655,22.1566518 C28.3585459,22.1566518 26.8332198,20.6295472 26.8332198,18.7479361 C26.8332198,16.8663251 28.3585459,15.3392205 30.2379655,15.3392205 Z M20.0237285,15.3392205 C21.9031481,15.3392205 23.4284742,16.8663251 23.4284742,18.7479361 C23.4284742,20.6295472 21.9031481,22.1566518 20.0237285,22.1566518 C18.1443088,22.1566518 16.6189828,20.6295472 16.6189828,18.7479361 C16.6189828,16.8663251 18.1443088,15.3392205 20.0237285,15.3392205 Z" id="path-4"></path>
        <filter x="-0.7%" y="-0.9%" width="101.4%" height="101.8%" filterUnits="objectBoundingBox" id="filter-5">
            <feOffset dx="2" dy="0" in="SourceAlpha" result="shadowOffsetInner1"></feOffset>
            <feComposite in="shadowOffsetInner1" in2="SourceAlpha" operator="arithmetic" k2="-1" k3="1" result="shadowInnerInner1"></feComposite>
            <feColorMatrix values="0 0 0 0 1   0 0 0 0 0.152941176   0 0 0 0 0.321568627  0 0 0 0.5 0" type="matrix" in="shadowInnerInner1"></feColorMatrix>
        </filter>
    </defs>
    <g id="Desktop" stroke="none" stroke-width="1" fill="none" fill-rule="evenodd">
        <g id="Training" transform="translate(-181.000000, -808.000000)">
            <g id="Services" transform="translate(80.000000, 496.000000)">
                <g id="Jumpstarts">
                    <g id="engineering" transform="translate(0.000000, 192.000000)">
                        <g id="icon">
                            <g id="Educate" transform="translate(101.000000, 120.000000)">
                                <mask id="mask-2" fill="white">
                                    <use xlink:href="#path-1"></use>
                                </mask>
                                <g id="Mask">
                                    <use fill="black" fill-opacity="1" filter="url(#filter-3)" xlink:href="#path-1"></use>
                                    <use fill="#FF2752" fill-rule="evenodd" xlink:href="#path-1"></use>
                                </g>
                                <g id="Combined-Shape" mask="url(#mask-2)">
                                    <use fill="#000000" fill-rule="evenodd" xlink:href="#path-4"></use>
                                    <use fill="black" fill-opacity="1" filter="url(#filter-5)" xlink:href="#path-4"></use>
                                </g>
                            </g>
                        </g>
                    </g>
                </g>
            </g>
        </g>
    </g>
</svg>
